svg/fluentui-system-icons/ic_fluent_glasses_off_16_regular.svg

<svg width="16" height="16" viewBox="0 0 16 16" fill="none" xmlns="http://www.w3.org/2000/svg">
<path d="M11.2837 11.9908L14.1464 14.8536C14.3417 15.0488 14.6583 15.0488 14.8536 14.8536C15.0488 14.6583 15.0488 14.3417 14.8536 14.1464L1.85355 1.14645C1.65829 0.951184 1.34171 0.951184 1.14645 1.14645C0.951184 1.34171 0.951184 1.65829 1.14645 1.85355L3.71201 4.41912L1.54689 6.34168C1.21293 6.61679 1 7.03353 1 7.5V9.5C1 10.8807 2.11929 12 3.5 12H4.5C5.88071 12 7 10.8807 7 9.5V9H8.29289L9.00923 9.71634C9.11278 10.9245 10.0755 11.8872 11.2837 11.9908ZM5.29289 6H3.43774L4.42036 5.12747L5.29289 6ZM2.17141 7.12312L2.17208 7.12388L2.19281 7.10547C2.27757 7.03938 2.38419 7 2.5 7H5.5C5.77614 7 6 7.22386 6 7.5V9.5C6 10.3284 5.32843 11 4.5 11H3.5C2.67157 11 2 10.3284 2 9.5V7.5C2 7.34964 2.06637 7.21478 2.17141 7.12312ZM10 7.87866L9.09496 6.97362C9.30814 6.40485 9.85679 6 10.5 6H12.5623L10.31 4H9.49991C9.22377 4 8.99991 3.77614 8.99991 3.5C8.99991 3.22386 9.22377 3 9.49991 3H10.4999C10.6223 3 10.7404 3.04488 10.8319 3.12613L14.4531 6.34168C14.7871 6.61679 15 7.03353 15 7.5V9.5C15 10.4157 14.5077 11.2164 13.7733 11.6519L13.0264 10.905C13.5952 10.6919 14 10.1432 14 9.5V7.5C14 7.34964 13.9336 7.21478 13.8286 7.12312L13.8279 7.12387L13.8072 7.10547C13.7224 7.03938 13.6158 7 13.5 7H10.5C10.2239 7 10 7.22386 10 7.5V7.87866ZM5.21241 3.09107L6.12134 4H6.50012C6.77626 4 7.00012 3.77614 7.00012 3.5C7.00012 3.22386 6.77626 3 6.50012 3H5.50012C5.39667 3 5.29627 3.03207 5.21241 3.09107Z" fill="#212121"/>
</svg>

<svg xmlns="http://www.w3.org/2000/svg" width="16" height="16"><path d="m11.284 11.99 2.862 2.864a.5.5 0 0 0 .708-.708l-13-13a.5.5 0 1 0-.708.708l2.566 2.565-2.165 1.923A1.497 1.497 0 0 0 1 7.5v2A2.5 2.5 0 0 0 3.5 12h1A2.5 2.5 0 0 0 7 9.5V9h1.293l.716.716a2.5 2.5 0 0 0 2.275 2.275ZM5.293 6H3.438l.982-.873.873.873ZM2.17 7.123h.001l.02-.018A.498.498 0 0 1 2.5 7h3a.5.5 0 0 1 .5.5v2A1.5 1.5 0 0 1 4.5 11h-1A1.5 1.5 0 0 1 2 9.5v-2a.5.5 0 0 1 .171-.377ZM10 7.88l-.905-.905A1.5 1.5 0 0 1 10.5 6h2.062L10.31 4H9.5a.5.5 0 0 1 0-1h1a.5.5 0 0 1 .332.126l3.621 3.216c.334.275.547.692.547 1.158v2c0 .916-.492 1.716-1.227 2.152l-.747-.747A1.5 1.5 0 0 0 14 9.5v-2a.499.499 0 0 0-.171-.377h-.001l-.02-.018A.498.498 0 0 0 13.5 7h-3a.5.5 0 0 0-.5.5v.379ZM5.212 3.09l.91.909H6.5a.5.5 0 0 0 0-1h-1a.5.5 0 0 0-.288.091Z"/></svg>
